svg/education/globe_line.svg

<?xml version="1.0" encoding="UTF-8"?>
<svg width="24px" height="24px" viewBox="0 0 24 24" version="1.1" xmlns="http://www.w3.org/2000/svg" xmlns:xlink="http://www.w3.org/1999/xlink">
    <title>globe_line</title>
    <g id="页面-1" stroke="none" stroke-width="1" fill="none" fill-rule="evenodd">
        <g id="Education" transform="translate(-336.000000, 0.000000)" fill-rule="nonzero">
            <g id="globe_line" transform="translate(336.000000, 0.000000)">
                 <path d="M24,0 L24,24 L0,24 L0,0 L24,0 Z M12.5934901,23.257841 L12.5819402,23.2595131 L12.5108777,23.2950439 L12.4918791,23.2987469 L12.4918791,23.2987469 L12.4767152,23.2950439 L12.4056548,23.2595131 C12.3958229,23.2563662 12.3870493,23.2590235 12.3821421,23.2649074 L12.3780323,23.275831 L12.360941,23.7031097 L12.3658947,23.7234994 L12.3769048,23.7357139 L12.4804777,23.8096931 L12.4953491,23.8136134 L12.4953491,23.8136134 L12.5071152,23.8096931 L12.6106902,23.7357139 L12.6232938,23.7196733 L12.6232938,23.7196733 L12.6266527,23.7031097 L12.609561,23.275831 C12.6075724,23.2657013 12.6010112,23.2592993 12.5934901,23.257841 L12.5934901,23.257841 Z M12.8583906,23.1452862 L12.8445485,23.1473072 L12.6598443,23.2396597 L12.6498822,23.2499052 L12.6498822,23.2499052 L12.6471943,23.2611114 L12.6650943,23.6906389 L12.6699349,23.7034178 L12.6699349,23.7034178 L12.678386,23.7104931 L12.8793402,23.8032389 C12.8914285,23.8068999 12.9022333,23.8029875 12.9078286,23.7952264 L12.9118235,23.7811639 L12.8776777,23.1665331 C12.8752882,23.1545897 12.8674102,23.1470016 12.8583906,23.1452862 L12.8583906,23.1452862 Z M12.1430473,23.1473072 C12.1332178,23.1423925 12.1221763,23.1452606 12.1156365,23.1525954 L12.1099173,23.1665331 L12.0757714,23.7811639 C12.0751323,23.7926639 12.0828099,23.8018602 12.0926481,23.8045676 L12.108256,23.8032389 L12.3092106,23.7104931 L12.3186497,23.7024347 L12.3186497,23.7024347 L12.3225043,23.6906389 L12.340401,23.2611114 L12.337245,23.2485176 L12.337245,23.2485176 L12.3277531,23.2396597 L12.1430473,23.1473072 Z" id="MingCute" fill-rule="nonzero"></path>
                <path d="M17.255,1.62484 C17.6233,1.21332 18.2555,1.1783 18.667,1.54662 C20.7113,3.37626 22.0001,6.03832 22.0001,9.00008 C22.0001,14.0911215 18.1956117,18.2936553 13.27462,18.9196208 L13.0001,18.9507 L13.0001,20 L16.0001,20 C16.5524,20 17.0001,20.4477 17.0001,21 C17.0001,21.51285 16.614073,21.9355092 16.1167239,21.9932725 L16.0001,22 L8.00011,22 C7.44782,22 7.00011,21.5523 7.00011,21 C7.00011,20.48715 7.38614566,20.0644908 7.8834879,20.0067275 L8.00011,20 L11.0001,20 L11.0001,18.9507 C7.93846,18.6466 5.2836,16.9613 3.66737,14.5304 C3.36159,14.0705 3.48653,13.4498 3.94643,13.144 C4.40634,12.8383 5.02705,12.9632 5.33284,13.4231 C6.71465179,15.5013286 9.03846361,16.894074 11.6926607,16.9943122 L12.0113,17.0001 C16.4244,16.994 20.0001,13.4146 20.0001,9.00008 C20.0001,6.63084 18.9715,4.50318 17.3332,3.03689 C16.9217,2.66857 16.8866,2.03637 17.255,1.62484 Z M12.00011,2.00001 C15.8661,2.00001 19.00011,5.13402 19.00011,9.00001 C19.00011,12.866 15.8661,16.00001 12.00011,16.00001 C8.13411,16.00001 5.00011,12.866 5.00011,9.00001 C5.00011,5.13402 8.13411,2.00001 12.00011,2.00001 Z M12.00011,4.00001 C9.23868,4.00001 7.00011,6.23859 7.00011,9.00001 C7.00011,11.7614 9.23868,14.00001 12.00011,14.00001 C14.7615,14.00001 17.00011,11.7614 17.00011,9.00001 C17.00011,6.23859 14.7615,4.00001 12.00011,4.00001 Z" id="形状" fill="#09244B"></path>
            </g>
        </g>
    </g>
</svg>

<svg xmlns="http://www.w3.org/2000/svg" width="24" height="24"><g fill="none" fill-rule="nonzero"><path d="M24 0v24H0V0h24ZM12.593 23.258l-.011.002-.071.035-.02.004-.014-.004-.071-.035c-.01-.004-.019-.001-.024.005l-.004.01-.017.428.005.02.01.013.104.074.015.004.012-.004.104-.074.012-.016.004-.017-.017-.427c-.002-.01-.009-.017-.017-.018Zm.265-.113-.013.002-.185.093-.01.01-.003.011.018.43.005.012.008.007.201.093c.012.004.023 0 .029-.008l.004-.014-.034-.614c-.003-.012-.01-.02-.02-.022Zm-.715.002a.023.023 0 0 0-.027.006l-.006.014-.034.614c0 .012.007.02.017.024l.015-.002.201-.093.01-.008.004-.011.017-.43-.003-.012-.01-.01-.184-.092Z"/><path fill="#09244B" d="M17.255 1.625a1 1 0 0 1 1.412-.078A9.977 9.977 0 0 1 22 9c0 5.091-3.804 9.294-8.725 9.92l-.275.03V20h3a1 1 0 0 1 .117 1.993L16 22H8a1 1 0 0 1-.117-1.993L8 20h3v-1.05a9.997 9.997 0 0 1-7.333-4.42 1 1 0 1 1 1.666-1.107 7.993 7.993 0 0 0 6.36 3.571l.318.006a8 8 0 0 0 5.322-13.963 1 1 0 0 1-.078-1.412ZM12 2a7 7 0 1 1 0 14 7 7 0 0 1 0-14Zm0 2a5 5 0 1 0 0 10 5 5 0 0 0 0-10Z"/></g></svg>
